packages/foundations/assets/icons/functional/images/buildings/house_24.svg

<svg width="24" height="24" viewBox="0 0 24 24" fill="none" xmlns="http://www.w3.org/2000/svg">
<g clip-path="url(#clip0_184_191)">
<path fill-rule="evenodd" clip-rule="evenodd" d="M11.9998 3C12.7188 3 13.4688 3.219 13.9998 3.75L20.7188 11.469C20.8114 11.5639 20.884 11.6765 20.9323 11.8C20.9805 11.9235 21.0035 12.0554 20.9998 12.188C20.9998 12.75 20.5618 13.156 19.9998 13.156C19.772 13.1599 19.5504 13.0822 19.3748 12.937L18.9998 12.595V20C18.9998 20.531 18.5938 21 18.0938 21H13.9998C13.4688 21 12.9998 20.531 12.9998 20V16H10.9998V20C10.9998 20.531 10.5938 21 10.0938 21H5.99981C5.46881 21 4.99981 20.594 4.99981 20.094V12.594L4.71881 12.875C4.5239 13.0572 4.26659 13.1577 3.99981 13.156C3.56181 13.156 2.99981 12.844 2.99981 12.187C2.99981 11.937 3.03081 11.719 3.21881 11.531L9.87481 3.875C10.4998 3.281 11.2188 3 11.9998 3ZM11.9998 5C11.7808 5 11.5308 5.063 11.3748 5.219L6.99981 10.594V19H8.99981V15C8.99981 14.5 9.37481 14 9.90581 14H13.9998C14.5308 14 14.9998 14.406 14.9998 14.906V19H16.9998V10.594L12.7188 5.28C12.5298 5.063 12.2498 5 11.9998 5Z" fill="#1A1C1F"/>
</g>
<defs>
<clipPath id="clip0_184_191">
<rect width="24" height="24" fill="white"/>
</clipPath>
</defs>
</svg>

<svg xmlns="http://www.w3.org/2000/svg" width="24" height="24" fill="none"><g clip-path="url(#a)"><path fill="#1A1C1F" fill-rule="evenodd" d="M12 3c.719 0 1.469.219 2 .75l6.719 7.719a1 1 0 0 1 .28.719c0 .562-.437.968-1 .968a.96.96 0 0 1-.624-.219L19 12.595V20c0 .531-.406 1-.906 1H14c-.531 0-1-.469-1-1v-4h-2v4c0 .531-.406 1-.906 1H6c-.531 0-1-.406-1-.906v-7.5l-.281.281a1.04 1.04 0 0 1-.72.281c-.437 0-1-.312-1-.969 0-.25.032-.468.22-.656l6.656-7.656C10.5 3.281 11.219 3 12 3m0 2c-.22 0-.47.063-.625.219L7 10.594V19h2v-4c0-.5.375-1 .906-1H14c.53 0 1 .406 1 .906V19h2v-8.406L12.719 5.28c-.19-.217-.47-.28-.72-.28" clip-rule="evenodd"/></g><defs><clipPath id="a"><path fill="#fff" d="M0 0h24v24H0z"/></clipPath></defs></svg>
